X:1078
T:German March.
M:C
L:1/8
Q:1/2=66
I: :: ::
N:bar 7 printed as |BG B/c/d/B/ AF A>Bc>A|
Z:Jack Campin * www.campin.me.uk * 2009
K:G
B>c|d>cd>e d>cB>A|G2 G>G G2 B2 |A>G`A>B      A>G`F>E       |D2 D>D D2
d>c|B>cd>e A>Bc>d|B>cd>e A>Bc>d|BG  B/c/d/B/ AF  A/>B/c/>A/|G2 G>G G2:|
B>c|d>cd>e d>gf>g|d2 d>d d2 B>c|d>B`g>f      e>d`c>B       |A2 A>A A2
d>c|B>GG>G G2 c>B|A>DD>D D2 d>c|B>G B/c/d/B/ A>F A/B/c/A/  |G2 G>G G2:|

